X: 1002
T: Khasitsky Tanets
D: Konsonans Retro "a Podolian Affair"
Z: 2011 John Chambers <jc:trillian.mit.edu>
M: 4/4
L: 1/8
K: E exp ^G
B, "B"\
|: "E"E2F2 G2A2 | "E"B4- BAGF | "E"E2F2 G2A2 | "Dm"BcAc "E"B2z2 |
|  "E"E2F2 G2A2 | "E"Bdc2- cBc^c | "Dm"d_dcB "E"ABG2- | "Dm"GEFD "E"E2 z2 :|
"C"\
|: "Dm"A,DFA GFED | "Dm"GAAA GFED | "Dm"CDFA GFED | "Dm"GBA2- ABc^c |
|  "Dm"d_dcB cBAG | "E"ABG2- G2FE | "Dm"D^CDE FAGF | "Dm"FEDF "E"E2 :|
"D"\
|: A3A GFED | "Dm"A3A GFED | "Dm"GABA GFED | "Dm"GBA2- ABcYc |
|  "Dm"d_dcB cBAG | "E"ABG2- G2FE | "Dm"D^CDE FAGF | "Dm"FEDF "E"E2 :|


%%sep 5 1 500

